X: 1
T: Our Cat Has Kitted
M: 3/2
L: 1/8
R: three-two
K: Dmaj
|: g2f2 e2d2 f2a2 | b2e2 e2d2 c2A2 | g2f2 e2d2 f2a2 | A2d2 d2A2 F2D2 :|
|: G2B2 F2A2 E4 | E2e2 e2d2 c2A2 | G2B2 F2A2 E4 | D2d2 d2A2 F2D2 :|
